X: 5543
T: Burnt Leg, The
R: reel
M: 4/4
K: Edorian
F|E<e e2 f<e dB|defa efd<B|B<e e2 f<edB|dBAF .E<E .E:|
|:G.F.FE DEF.A|B<BdB AB d<e|fedA DEFA|BdAF .E<E .E:|

